X: 36459
T: Second Wedding, The
R: reel
M: 4/4
K: Gmajor
dc|BGAG BGAG|G2 Bd gedc|BGAG BGAG|EAAG ABcA|
BGAG BGAF|G2 Bd gedc|BGAG BGAG|FDEF G2|
Bd|gfge fgaf|g2 bg afdf|gfge fgaf|bgef g2 Bd|
gfge fgaf|g2 bg afdf|gfge fefd|egfa gedc||

